src/assets/icons/filters/categories/helmet_stroke.svg

<svg width="48" height="49" viewBox="0 0 48 49" fill="none" xmlns="http://www.w3.org/2000/svg">
<path fill-rule="evenodd" clip-rule="evenodd" d="M37.6565 41.2457C37.4823 41.379 33.4644 44.3409 22.1929 44.3409C15.743 44.3409 10.9748 42.7106 8.10895 41.3434C7.25915 40.9363 6.42179 39.8856 5.69643 38.5594C9.26276 39.3683 12.6904 39.6918 15.8141 39.6918C21.1245 39.6918 25.6828 38.8207 28.5007 38.0776C30.8296 37.466 32.5719 35.3575 32.5719 32.9521V22.5642C32.5719 20.2921 31.8039 18.0823 30.5683 16.1747C28.9789 13.7159 26.3051 11.9737 23.1458 11.2679L10.8433 8.52289C13.3002 6.2366 16.4203 4.52455 20.4062 3.76009C21.7218 3.50763 23.0338 3.38318 24.3494 3.38318C28.9896 3.38318 33.5142 4.9299 37.1872 7.84554C41.7384 11.4545 44.3571 16.6174 44.5598 22.3864C44.8052 29.3022 41.7082 37.7576 37.6565 41.2457V41.2457ZM8.24584 11.4474L22.3369 14.5977C24.5806 15.0991 26.6037 16.3471 27.6864 18.0218C28.5629 19.3783 29.1407 20.9482 29.1407 22.5642V32.9521C29.1407 33.809 28.4509 34.561 27.6242 34.7779C23.1067 35.9691 14.0238 37.5175 4.17816 34.6446C3.89727 33.649 3.67504 32.6623 3.59859 31.7751C3.00657 24.9838 4.15683 17.1738 8.24584 11.4474V11.4474ZM47.9857 22.5215C48.2328 29.5013 45.2656 39.2207 39.877 44.3409H39.8735C39.4059 44.3409 34.9311 48.0032 22.1929 48.0032C15.0994 48.0032 9.81211 46.0654 6.62624 44.5435C2.78612 42.7088 0.492719 36.0277 0.154931 32.1325C-1.03622 18.4716 4.5604 3.35296 19.7413 0.439096C26.6855 -0.890722 33.8217 0.83022 39.3206 5.19124C44.67 9.43137 47.7475 15.7409 47.9857 22.5215V22.5215ZM23.9992 32.3956C24.9468 32.3956 25.7148 31.6311 25.7148 30.6889V20.4486C25.7148 19.5063 24.9468 18.7419 23.9992 18.7419C23.5458 18.7414 23.1106 18.9208 22.7893 19.2408C22.468 19.5608 22.2868 19.9951 22.2854 20.4486V30.6889C22.2854 31.6311 23.0534 32.3956 23.9992 32.3956ZM36.0013 23.862C35.5479 23.8616 35.1128 24.041 34.7915 24.361C34.4702 24.6809 34.2889 25.1153 34.2875 25.5687V27.2755C34.2875 28.2177 35.0555 28.9822 36.0013 28.9822C36.9489 28.9822 37.7169 28.2177 37.7169 27.2755V25.5687C37.7169 24.6265 36.9489 23.862 36.0013 23.862Z" fill="black"/>
</svg>

<svg width="48" height="49" viewBox="0 0 48 49" fill="none" xmlns="http://www.w3.org/2000/svg"><path fill-rule="evenodd" clip-rule="evenodd" d="M37.657 41.246c-.175.133-4.193 3.095-15.464 3.095-6.45 0-11.218-1.63-14.084-2.998-.85-.407-1.687-1.457-2.413-2.784a45.855 45.855 0 0010.118 1.133c5.31 0 9.869-.871 12.687-1.614 2.329-.612 4.07-2.72 4.07-5.126V22.564c0-2.272-.767-4.482-2.003-6.39-1.59-2.458-4.263-4.2-7.422-4.906L10.843 8.523C13.3 6.237 16.42 4.525 20.406 3.76a20.858 20.858 0 013.943-.377c4.64 0 9.165 1.547 12.838 4.463 4.551 3.608 7.17 8.771 7.373 14.54.245 6.916-2.852 15.372-6.904 18.86zM8.245 11.447l14.09 3.15c2.245.502 4.268 1.75 5.35 3.425.877 1.356 1.455 2.926 1.455 4.542v10.388c0 .857-.69 1.609-1.517 1.826-4.517 1.191-13.6 2.74-23.446-.133-.28-.996-.503-1.983-.58-2.87-.591-6.791.559-14.601 4.648-20.328zm39.74 11.075c.247 6.98-2.72 16.699-8.109 21.819h-.004c-.467 0-4.942 3.662-17.68 3.662-7.094 0-12.38-1.938-15.567-3.46C2.786 42.71.493 36.029.155 32.133-1.036 18.471 4.56 3.352 19.74.439c6.945-1.33 14.08.391 19.58 4.752 5.349 4.24 8.427 10.55 8.665 17.33zm-23.987 9.874c.948 0 1.716-.765 1.716-1.707v-10.24c0-.943-.768-1.707-1.716-1.707a1.712 1.712 0 00-1.714 1.707v10.24c0 .942.768 1.707 1.714 1.707zm12.002-8.534a1.712 1.712 0 00-1.713 1.707v1.707c0 .942.768 1.706 1.713 1.706.948 0 1.716-.764 1.716-1.706v-1.707c0-.942-.768-1.707-1.716-1.707z" fill="#000"/></svg>
